Sources/FrostedUI/Resources/Icons.xcassets/bulb16.imageset/bulb-16.svg

<svg width="16" height="16" viewBox="0 0 16 16" fill="none" xmlns="http://www.w3.org/2000/svg" data-fui-icon="true">
  <path
    d="M10.5 14.5C10.9142 14.5 11.25 14.8358 11.25 15.25C11.25 15.6642 10.9142 16 10.5 16H5.5C5.08579 16 4.75 15.6642 4.75 15.25C4.75 14.8358 5.08579 14.5 5.5 14.5H10.5ZM8 0C9.91509 0 11.4924 0.619338 12.5928 1.71973C13.691 2.818 14.25 4.33147 14.25 6C14.25 7.85739 13.4118 9.07901 12.6279 9.80176C12.0808 10.3063 11.75 10.8518 11.75 11.3545V11.5C11.75 12.4665 10.9665 13.25 10 13.25H6C5.0335 13.25 4.25 12.4665 4.25 11.5V11.3545C4.25 10.8518 3.91917 10.3063 3.37207 9.80176C2.58819 9.07901 1.75 7.85739 1.75 6C1.75 4.33147 2.30896 2.818 3.40723 1.71973C4.50761 0.619338 6.08491 0 8 0ZM8 1.5C6.41509 1.5 5.24239 2.00566 4.46777 2.78027C3.69104 3.557 3.25 4.66853 3.25 6C3.25 7.35108 3.84214 8.19432 4.38867 8.69824C5.04382 9.3023 5.75 10.2217 5.75 11.3545V11.5C5.75 11.6381 5.86193 11.75 6 11.75H10C10.1381 11.75 10.25 11.6381 10.25 11.5V11.3545C10.25 10.2217 10.9562 9.3023 11.6113 8.69824C12.1579 8.19432 12.75 7.35108 12.75 6C12.75 4.66853 12.309 3.557 11.5322 2.78027C10.7576 2.00566 9.58491 1.5 8 1.5ZM9.5 6C9.91421 6 10.25 6.33579 10.25 6.75C10.25 7.16421 9.91421 7.5 9.5 7.5H8.75V9.5C8.75 9.91421 8.41421 10.25 8 10.25C7.58579 10.25 7.25 9.91421 7.25 9.5V7.5H6.5C6.08579 7.5 5.75 7.16421 5.75 6.75C5.75 6.33579 6.08579 6 6.5 6H9.5Z"
    fill="currentColor"
  />
</svg>

<svg xmlns="http://www.w3.org/2000/svg" width="16" height="16" fill="none" data-fui-icon="true" viewBox="0 0 16 16"><path fill="currentColor" d="M10.5 14.5a.75.75 0 0 1 0 1.5h-5a.75.75 0 0 1 0-1.5zM8 0c1.915 0 3.492.62 4.593 1.72C13.69 2.818 14.25 4.33 14.25 6c0 1.857-.838 3.079-1.622 3.802-.547.504-.878 1.05-.878 1.553v.145A1.75 1.75 0 0 1 10 13.25H6a1.75 1.75 0 0 1-1.75-1.75v-.146c0-.502-.33-1.048-.878-1.552C2.588 9.079 1.75 7.857 1.75 6c0-1.669.559-3.182 1.657-4.28C4.507.62 6.085 0 8 0m0 1.5c-1.585 0-2.758.506-3.532 1.28C3.69 3.557 3.25 4.67 3.25 6c0 1.351.592 2.194 1.139 2.698.655.604 1.361 1.524 1.361 2.656v.146c0 .138.112.25.25.25h4a.25.25 0 0 0 .25-.25v-.146c0-1.132.706-2.052 1.361-2.656.547-.504 1.139-1.347 1.139-2.698 0-1.331-.441-2.443-1.218-3.22C10.758 2.006 9.585 1.5 8 1.5M9.5 6a.75.75 0 0 1 0 1.5h-.75v2a.75.75 0 0 1-1.5 0v-2H6.5a.75.75 0 0 1 0-1.5z"/></svg>
